<?xml version="1.0" encoding="UTF-8"?>
<map version="1.10" tiledversion="1.11.0" orientation="orthogonal" renderorder="right-down" width="20" height="15" tilewidth="8" tileheight="8" infinite="0">
 <tileset firstgid="1" name="demo" tilewidth="8" tileheight="8" tilecount="2" columns="2">
  <image source="tileset.png" width="16" height="8"/>
 </tileset>
 <layer id="1" name="ground" width="20" height="15">
  <data encoding="csv">
1,1,1,1,1,1,1,1,1,1,1,1,1,1,1,1,1,1,1,1,
1,1,1,1,1,1,1,1,1,1,1,1,1,1,1,1,1,1,1,1,
1,1,1,1,1,1,1,1,1,1,1,1,1,1,1,1,1,1,1,1,
1,1,1,1,1,1,1,1,1,1,1,1,1,1,1,1,1,1,1,1,
1,1,1,1,1,1,1,1,1,1,1,1,1,1,1,1,1,1,1,1,
1,1,1,1,1,1,1,1,1,1,1,1,1,1,1,1,1,1,1,1,
1,1,1,1,1,1,1,1,1,1,1,1,1,1,1,1,1,1,1,1,
1,1,1,1,1,1,1,1,1,1,1,1,1,1,1,1,1,1,1,1,
1,1,1,1,1,1,1,1,1,1,1,1,1,1,1,1,1,1,1,1,
1,1,1,1,1,1,1,1,1,1,1,1,1,1,1,1,1,1,1,1,
1,1,1,1,1,1,1,1,1,1,1,1,1,1,1,1,1,1,1,1,
1,1,1,1,1,1,1,1,1,1,1,1,1,1,1,1,1,1,1,1,
1,1,1,1,1,1,1,1,1,1,1,1,1,1,1,1,1,1,1,1,
1,1,1,1,1,1,1,1,1,1,1,1,1,1,1,1,1,1,1,1,
1,1,1,1,1,1,1,1,1,1,1,1,1,1,1,1,1,1,1,1
</data>
 </layer>
 <layer id="2" name="decoration" width="20" height="15">
  <data encoding="csv">
0,0,2,0,0,0,2,0,0,0,0,0,2,0,0,0,2,0,0,0,
0,0,0,0,2,0,0,0,0,2,0,0,0,0,2,0,0,0,0,2,
2,0,0,0,0,0,0,2,0,0,0,0,2,0,0,0,0,2,0,0,
0,0,2,0,0,0,0,0,0,0,2,0,0,0,0,2,0,0,0,0,
0,0,0,0,0,2,0,0,0,0,0,0,2,0,0,0,0,0,2,0,
0,2,0,0,0,0,0,0,2,0,0,0,0,0,2,0,0,0,0,0,
0,0,0,0,2,0,0,0,0,0,0,2,0,0,0,0,2,0,0,0,
0,0,0,0,0,0,0,2,0,0,0,0,0,2,0,0,0,0,0,2,
2,0,0,0,0,2,0,0,0,0,2,0,0,0,0,0,2,0,0,0,
0,0,2,0,0,0,0,0,2,0,0,0,0,2,0,0,0,0,2,0,
0,0,0,0,0,0,2,0,0,0,0,2,0,0,0,0,2,0,0,0,
0,2,0,0,0,0,0,0,0,2,0,0,0,0,0,2,0,0,0,0,
0,0,0,2,0,0,0,0,2,0,0,0,0,2,0,0,0,0,0,2,
2,0,0,0,0,0,2,0,0,0,0,2,0,0,0,0,2,0,0,0,
0,0,2,0,0,0,0,2,0,0,0,0,0,2,0,0,0,2,0,0
</data>
 </layer>
</map>
